Sources/FrostedUI/Resources/Icons.xcassets/messageEdit32.imageset/message-edit-32.svg

<svg width="32" height="32" viewBox="0 0 32 32" fill="none" xmlns="http://www.w3.org/2000/svg" data-fui-icon="true">
  <path
    d="M18 4.24977C18.414 4.2499 18.7499 4.58574 18.75 4.99977C18.75 5.4139 18.4141 5.74964 18 5.74977H6.33398C5.27551 5.74977 4.41712 6.60832 4.41699 7.66676V21.6668C4.41717 22.7252 5.27554 23.5828 6.33398 23.5828H11.5361C12.0254 23.5828 12.499 23.7558 12.874 24.0701L15.6279 26.3777C15.8435 26.5584 16.158 26.5594 16.375 26.3797L19.1729 24.0623C19.5465 23.7528 20.017 23.5828 20.502 23.5828H25.667C26.7254 23.5826 27.5838 22.7251 27.584 21.6668V12.4998C27.5841 12.0857 27.9198 11.7498 28.334 11.7498C28.7479 11.7501 29.0839 12.0859 29.084 12.4998V21.6668C29.0838 23.5535 27.5538 25.0826 25.667 25.0828H20.502C20.3661 25.0828 20.2342 25.1312 20.1299 25.2175L17.332 27.5349C16.5576 28.1765 15.4348 28.1733 14.6641 27.5271L11.9111 25.2195C11.8062 25.1315 11.6731 25.0828 11.5361 25.0828H6.33398C4.44713 25.0828 2.91717 23.5536 2.91699 21.6668V7.66676C2.91712 5.7799 4.44709 4.24977 6.33398 4.24977H18ZM10 13.4998C10.6443 13.4998 11.167 14.0225 11.167 14.6668C11.1669 15.311 10.6443 15.8337 10 15.8338C9.3557 15.8338 8.83306 15.311 8.83301 14.6668C8.83301 14.0225 9.35567 13.4998 10 13.4998ZM16 13.4998C16.6442 13.4998 17.167 14.0225 17.167 14.6668C17.1669 15.311 16.6442 15.8337 16 15.8338C15.3558 15.8338 14.8331 15.311 14.833 14.6668C14.833 14.0225 15.3557 13.4998 16 13.4998ZM22 13.4998C22.6442 13.4998 23.167 14.0225 23.167 14.6668C23.1669 15.311 22.6442 15.8337 22 15.8338C21.3558 15.8338 20.8331 15.311 20.833 14.6668C20.833 14.0225 21.3557 13.4998 22 13.4998ZM25.9824 1.21364C27.2383 -0.0421302 29.2744 -0.0421297 30.5303 1.21364C31.7861 2.46952 31.7861 4.50558 30.5303 5.76149L24.6934 11.5984C24.2519 12.0398 23.6732 12.3175 23.0527 12.3865L20.8213 12.6355C19.8341 12.7452 18.9997 11.9108 19.1094 10.9236L19.3574 8.69118C19.4264 8.07072 19.7041 7.49202 20.1455 7.05055L25.9824 1.21364ZM21.2061 8.1111C21.0055 8.31175 20.878 8.57521 20.8467 8.85719L20.5996 11.0896C20.5964 11.1211 20.6228 11.1475 20.6543 11.1443L22.8867 10.8963C23.1688 10.8649 23.4321 10.7385 23.6328 10.5379L27.6318 6.53883L25.2051 4.11208L21.2061 8.1111ZM29.4697 2.27419C28.7996 1.6042 27.7131 1.6042 27.043 2.27419L26.2656 3.05153L28.6924 5.47829L29.4697 4.70094C30.1397 4.03082 30.1398 2.94428 29.4697 2.27419Z"
    fill="currentColor"
  />
</svg>

<svg xmlns="http://www.w3.org/2000/svg" width="32" height="32" fill="none" data-fui-icon="true" viewBox="0 0 32 32"><path fill="currentColor" d="M18 4.25a.75.75 0 0 1 0 1.5H6.334a1.917 1.917 0 0 0-1.917 1.917v14c0 1.058.859 1.916 1.917 1.916h5.202c.49 0 .963.173 1.338.487l2.754 2.308c.216.18.53.181.747.002l2.798-2.318c.374-.31.844-.48 1.329-.48h5.165a1.917 1.917 0 0 0 1.917-1.915V12.5a.75.75 0 0 1 1.5 0v9.167a3.417 3.417 0 0 1-3.417 3.416h-5.165a.6.6 0 0 0-.372.135l-2.798 2.317a2.084 2.084 0 0 1-2.668-.008l-2.753-2.308a.6.6 0 0 0-.375-.136H6.334a3.417 3.417 0 0 1-3.417-3.416v-14A3.417 3.417 0 0 1 6.334 4.25zm-8 9.25a1.167 1.167 0 1 1 0 2.334 1.167 1.167 0 0 1 0-2.334m6 0a1.167 1.167 0 1 1 0 2.334 1.167 1.167 0 0 1 0-2.334m6 0a1.167 1.167 0 1 1 0 2.334 1.167 1.167 0 0 1 0-2.334m3.982-12.286A3.216 3.216 0 0 1 30.53 5.76l-5.837 5.837a2.75 2.75 0 0 1-1.64.788l-2.232.25a1.55 1.55 0 0 1-1.712-1.712l.248-2.233c.07-.62.347-1.199.788-1.64zM21.206 8.11c-.2.2-.328.464-.36.746L20.6 11.09a.05.05 0 0 0 .054.054l2.233-.248c.282-.031.545-.158.746-.358l3.999-4-2.427-2.426zm8.264-5.837a1.716 1.716 0 0 0-2.427 0l-.777.778 2.426 2.426.778-.777c.67-.67.67-1.757 0-2.427"/></svg>
